X: 1
T: Alderman's Hat
O: trad. arr. Rachel Maloney / Rustic Roots
Z: 2020 John Chambers <jc:trillian.mit.edu>
P: Swung 18/th notes
M: 2/4
L: 1/8
K: Gm
DDD |:\
"Gm"G2B2 BBGG | "D"^Fd2d- ddDD |\
"Gm"G2B2 BBGG | "D"^FA2A- AADD |\
"Gm"G2B2 BBGG |
^Fg2g- gg"Cm"cc |\
"Gm"B2B2 "D"AAAA | "Gm"GGFG z :: ddd |\
"Gm"d2g2 ggdd | gb2b- bbdd |
"F"c2f2 ffcc | fa2a- aacc |\
"Eb"B_e2e- eedc | "G"dg2g- gg"Cm"cc |\
"Gm"B2B2 "D"AAAA | "Gm"GGFG z :|
